img/icon-bookmark.svg

<svg fill="none" height="16" viewBox="0 0 14 16" width="14" xmlns="http://www.w3.org/2000/svg"><path d="m14 15c0 .55-.368.741-.818.426l-5.363-3.765c-.45-.315-1.187-.315-1.637 0l-5.364 3.765c-.45.315-.818.124-.818-.426v-14c0-.55.45-1 1-1h12c.55 0 1 .45 1 1z" fill="#fff"/></svg>

<svg width="14" height="16" viewBox="0 0 14 16" fill="none" xmlns="http://www.w3.org/2000/svg">
<path d="M14 15C14 15.55 13.632 15.741 13.182 15.426L7.819 11.661C7.369 11.346 6.632 11.346 6.182 11.661L0.818 15.426C0.368 15.741 0 15.55 0 15V1C0 0.45 0.45 0 1 0H13C13.55 0 14 0.45 14 1V15Z" fill="white"/>
</svg>
